assets/fc/fc-slr-back-side.svg

<svg xmlns="http://www.w3.org/2000/svg" width="100%" height="100%" viewBox="0 0 48 48"><path fill="#5E35B1" d="M40 10h-7.6l-2-3c-.4-.6-1-.9-1.7-.9h-9.6c-.7 0-1.3.3-1.7.9l-2 3H8c-2.2 0-4 1.8-4 4v24c0 2.2 1.8 4 4 4h32c2.2 0 4-1.8 4-4V14c0-2.2-1.8-4-4-4z"/><path fill="#F57C00" d="M11 16h20c.6 0 1 .4 1 1v16c0 .6-.4 1-1 1H11c-.6 0-1-.4-1-1V17c0-.6.4-1 1-1z"/><path fill="#942A09" d="M18.9 22L12 32h13.8z"/><circle cx="27" cy="21" r="2" fill="#FFF9C4"/><path fill="#BF360C" d="M25.2 26l-4.8 6H30z"/><g fill="#8667C4"><path d="M34 10h6v-.8c0-.7-.5-1.2-1.2-1.2h-3.6c-.7 0-1.2.5-1.2 1.2v.8z"/><circle cx="38" cy="18" r="2"/><circle cx="38" cy="24" r="2"/><circle cx="38" cy="30" r="2"/></g></svg>

<svg xmlns="http://www.w3.org/2000/svg" width="100%" height="100%" viewBox="0 0 48 48"><path fill="#5E35B1" d="M40,10h-7.6l-2-3c-0.4-0.6-1-0.9-1.7-0.9h-9.6c-0.7,0-1.3,0.3-1.7,0.9l-2,3H8c-2.2,0-4,1.8-4,4v24 c0,2.2,1.8,4,4,4h32c2.2,0,4-1.8,4-4V14C44,11.8,42.2,10,40,10z"/><path fill="#F57C00" d="M11,16h20c0.6,0,1,0.4,1,1v16c0,0.6-0.4,1-1,1H11c-0.6,0-1-0.4-1-1V17C10,16.4,10.4,16,11,16z"/><path fill="#942A09" d="M18.9 22L12 32 25.8 32z"/><circle cx="27" cy="21" r="2" fill="#FFF9C4"/><path fill="#BF360C" d="M25.2 26L20.4 32 30 32z"/><g fill="#8667C4"><path d="M34,10h6V9.2C40,8.5,39.5,8,38.8,8h-3.6C34.5,8,34,8.5,34,9.2V10z"/><circle cx="38" cy="18" r="2"/><circle cx="38" cy="24" r="2"/><circle cx="38" cy="30" r="2"/></g></svg>
